X: 14093
T: Freya Dances
R: jig
M: 6/8
K: Aminor
DCB,|:A,2A, EAE|F2F DEF|ECD EDC|~B,A,B, DC~B,|
A,2A, EAE|F2F DEF|ECA, DB,G,|1 A,2A, DCB,:|2 A,3 EAB||
|:cEF ABc|dEF Bcd|eA dA cA|BAG EAB|
cEF ABc|dEF Bcd|eba fec|1 A2A EAB:|2 A3||

